build/img/cloud-logo-rus.svg

<svg width="134" height="93" viewBox="0 0 134 93" fill="none" xmlns="http://www.w3.org/2000/svg">
<g clip-path="url(#clip0)">
<path fill-rule="evenodd" clip-rule="evenodd" d="M110.966 36.2509H110.966H110.986C116.265 36.2238 121.392 37.9964 125.501 41.2692C129.609 44.542 132.447 49.1143 133.534 54.2135C134.622 59.3126 133.892 64.6258 131.468 69.2553C129.045 73.8848 125.077 77.5467 120.234 79.622C118.186 80.385 116.023 80.8059 113.835 80.8674C112.898 80.8674 112.224 80.7282 112.079 80.411C111.863 79.9508 112.608 79.506 113.282 79.1773C118.129 76.8042 119.091 76.1604 120.519 75.2047L120.519 75.2046C120.86 74.9766 121.227 74.7308 121.68 74.4395C126.66 71.3222 130.101 65.018 130.101 58.8879C130.083 53.8955 128.059 49.1142 124.472 45.5942C120.884 42.0741 116.028 40.1033 110.97 40.1146C109.971 40.1153 108.974 40.1916 107.988 40.3428C107.706 40.3861 107.419 40.3684 107.145 40.2908C106.871 40.2132 106.618 40.0776 106.403 39.8935C106.188 39.7095 106.016 39.4813 105.899 39.2249C105.782 38.9685 105.723 38.6901 105.727 38.409V38.1808C105.707 34.9395 104.831 31.7593 103.185 28.9545C101.538 26.1497 99.1792 23.8173 96.3402 22.1878C93.5011 20.5583 90.2804 19.688 86.9962 19.663C83.7121 19.638 80.4782 20.4592 77.614 22.0453C77.3585 22.1875 77.0739 22.2713 76.7812 22.2905C76.4885 22.3097 76.1951 22.2637 75.9228 22.1561C75.6505 22.0484 75.4062 21.8818 75.2078 21.6685C75.0095 21.4552 74.8622 21.2007 74.7768 20.9237C73.2281 15.9948 70.1258 11.6826 65.9214 8.61484C61.7171 5.54707 56.6303 3.88394 51.4018 3.86761C37.9567 3.86761 26.9843 14.6272 26.9843 27.8466C26.9878 28.7774 27.0454 29.7071 27.1568 30.6313C27.1876 30.8921 27.1644 31.1564 27.0884 31.408C27.0124 31.6596 26.8852 31.8934 26.7148 32.0949C26.5443 32.2965 26.334 32.4617 26.0967 32.5804C25.8594 32.6992 25.6001 32.7689 25.3346 32.7856C19.5463 33.142 14.1122 35.6586 10.135 39.8245C6.15785 43.9904 3.93547 49.4937 3.91887 55.2176C3.9003 58.7681 4.74988 62.2707 6.39549 65.428C7.72393 67.8143 10.3612 71.3996 15.3615 74.8804C17.8471 76.5305 20.4688 77.9718 23.1989 79.1889C24.2491 79.6646 24.6488 80.0397 24.4881 80.3994C24.0884 81.3006 19.386 80.6934 16.7369 79.6259C11.7849 77.6887 7.53929 74.3237 4.55376 69.9697C1.56823 65.6158 -0.0186167 60.4749 0.000164811 55.2176C0.0249972 48.8546 2.37509 42.7141 6.6188 37.924C10.8625 33.1339 16.7149 30.0157 23.1009 29.1423C23.0656 28.7053 23.0656 28.2721 23.0656 27.8466C23.0656 12.4923 35.7779 2.19078e-05 51.4018 2.19078e-05C57.0848 -0.00699842 62.6385 1.67338 67.3411 4.82273C72.0437 7.97208 75.6777 12.4448 77.7707 17.6594C80.6437 16.4336 83.74 15.7993 86.8699 15.7952C98.6496 15.7952 108.58 24.7835 109.567 36.2935C110.033 36.2509 110.504 36.2509 110.966 36.2509ZM27.7471 90.776V87.7941H28.4681L30.7606 90.776H32.524L29.7143 87.2604L32.3281 83.9497H30.5646L28.6053 86.6029H27.7471V83.9497H26.2031V90.776H27.7471ZM36.0831 90.9425C34.3981 90.9425 32.6738 89.8363 32.6738 87.3765C32.6738 84.9168 34.3981 83.7952 36.0831 83.7952C37.7681 83.7952 39.4924 84.9129 39.4924 87.3765C39.4924 89.8402 37.7681 90.9425 36.0831 90.9425ZM37.9092 87.3765C37.9092 85.8024 37.0471 85.0289 36.0831 85.0289C35.1191 85.0289 34.257 85.8024 34.257 87.3765C34.257 88.9507 35.1191 89.6971 36.0831 89.6971C37.0471 89.6971 37.9092 88.9545 37.9092 87.3765ZM42.3681 87.8714H45.4561V90.776H46.9844V83.9497H45.4561V86.6764H42.3681V83.9497H40.8359V90.776H42.3681V87.8714ZM54.4716 92.389V90.7762H49.4165V92.389H48.0293V89.5966H48.4212C49.2049 89.5966 49.5968 88.6065 49.7065 86.1158L49.8084 83.946H54.8517V89.5927H55.8824V92.3851L54.4716 92.389ZM51.1407 85.1411L51.078 86.3014C50.9722 88.1037 50.7175 89.0783 50.1767 89.6005H53.3117V85.1411H51.1407ZM61.8356 86.0421V90.776H63.3679V83.9497H61.8356L58.5439 88.7068V83.9497H57.0117V90.776H58.5439L61.8356 86.0421ZM72.0142 92.3888H70.623V90.776H65.0938V83.9497H66.6181V89.5848H69.4474V83.9497H70.9796V89.5848H72.0103L72.0142 92.3888ZM77.9821 86.0421V90.776H79.5143V83.9497H77.9821L74.6904 88.7068V83.9497H73.1582V90.776H74.6904L77.9821 86.0421ZM84.13 90.9425C82.4449 90.9425 80.7207 89.8363 80.7207 87.3765C80.7207 84.9168 82.4449 83.7952 84.13 83.7952C85.815 83.7952 87.5393 84.9129 87.5393 87.3765C87.5393 89.8402 85.8189 90.9425 84.13 90.9425ZM85.9561 87.3765C85.9561 85.8024 85.094 85.0289 84.13 85.0289C83.166 85.0289 82.3039 85.8024 82.3039 87.3765C82.3039 88.9507 83.166 89.6971 84.13 89.6971C85.094 89.6971 85.9561 88.9545 85.9561 87.3765ZM90.3974 87.8714H93.4815V90.776H95.0137V83.9497H93.4815V86.6764H90.3974V83.9497H88.8652V90.776H90.3974V87.8714ZM99.7726 89.6855C100.556 89.6855 101.199 89.3683 101.469 88.7341H102.974C102.775 89.394 102.359 89.9695 101.791 90.3695C101.223 90.7694 100.536 90.9711 99.8392 90.9425C97.6134 90.9425 96.3398 89.2678 96.3398 87.3108C96.3398 85.2571 97.7702 83.7952 99.7374 83.7952C101.857 83.7952 103.182 85.4969 103.056 87.7942H97.8956C97.9975 89.0628 98.8988 89.6855 99.7726 89.6855ZM101.497 86.692C101.496 86.4647 101.45 86.2397 101.361 86.0301C101.272 85.8204 101.142 85.6303 100.978 85.4706C100.814 85.311 100.619 85.1849 100.406 85.0998C100.192 85.0147 99.9637 84.9722 99.7334 84.9748C99.2597 84.9643 98.8009 85.1389 98.4567 85.4604C98.1126 85.7819 97.9109 86.2245 97.8956 86.692H101.497ZM106.74 84.0515C106.377 84.2393 106.072 84.5193 105.856 84.8627V83.9499H104.328V93.0001H105.856V89.8751C106.072 90.2184 106.377 90.4985 106.74 90.6862C107.102 90.8739 107.509 90.9624 107.918 90.9425C109.603 90.9425 110.888 89.5425 110.888 87.3611C110.888 85.1798 109.603 83.7952 107.918 83.7952C107.509 83.7753 107.102 83.8638 106.74 84.0515ZM107.581 85.0406C108.65 85.0406 109.293 85.9301 109.293 87.3611C109.293 88.8115 108.65 89.7281 107.581 89.7126C106.577 89.7126 105.794 88.9082 105.794 87.3611C105.794 85.8141 106.577 85.0406 107.581 85.0406ZM28.2382 65.8032C30.8834 65.8032 33.1366 67.5243 33.1366 70.951C33.1366 74.3777 30.8834 76.0833 28.2382 76.0833C25.5931 76.0833 23.3359 74.3777 23.3359 70.951C23.3359 67.5243 25.5892 65.8032 28.2382 65.8032ZM28.2382 73.3837C29.0808 73.3837 29.7273 72.7649 29.7273 70.951C29.7273 69.1371 29.0808 68.5028 28.2382 68.5028C27.3957 68.5028 26.7491 69.1371 26.7491 70.951C26.7491 72.7649 27.3918 73.3837 28.2382 73.3837ZM33.9492 69.6167V69.9183C33.9492 74.2578 36.0536 76.0833 38.5576 76.0678C40.8892 76.0678 43.3384 74.4744 43.3384 71.2797C43.3384 68.3133 41.3869 66.7663 39.2199 66.7663C38.1109 66.7663 36.8687 67.1259 36.3044 68.2359C36.4219 66.4027 37.4643 65.9115 38.7731 65.7491L42.3313 65.3623V62.3843L39.4354 62.655C35.1248 63.0727 34.0472 66.0469 33.9492 69.6167ZM38.5302 69.2106C39.2747 69.2106 39.9723 69.6824 39.9723 71.2952C39.9723 72.819 39.263 73.3837 38.5655 73.3837C37.8679 73.3837 37.2096 72.7301 37.2096 71.2952C37.2096 69.7018 37.7856 69.2106 38.5302 69.2106ZM43.8887 73.2019H44.1865C44.7978 73.2019 45.3935 72.5831 45.5424 69.3575L45.7109 66.0933H53.6854V75.8473H50.378V68.7387H48.7557L48.6068 71.0244C48.4226 73.782 47.3802 75.8473 44.5157 75.8473H43.8887V73.2019ZM59.2194 68.1572C59.395 68.1037 59.5797 68.0858 59.7625 68.1043C60.4757 68.1043 61.087 68.3209 61.0909 69.4116V69.6823C57.3447 69.9376 55.2129 70.8967 55.2129 73.1631C55.2129 74.9036 56.6511 76.0832 58.391 76.0832C59.6489 76.0832 60.7539 75.65 61.4162 74.5787V75.8473H64.4963C64.3652 74.5455 64.3102 73.2374 64.3317 71.9294V70.0613C64.3631 66.7971 62.5448 65.7451 59.9937 65.7451C57.0508 65.7451 55.5577 67.5049 55.4088 69.3574H58.2577C58.2699 69.1765 58.3189 68.9998 58.4019 68.8379C58.4848 68.6761 58.5999 68.5324 58.7404 68.4154C58.8808 68.2984 59.0437 68.2106 59.2194 68.1572ZM59.6136 73.635C58.8432 73.635 58.5248 73.1698 58.5203 72.7543C58.5279 71.9112 59.4562 71.5846 61.2046 71.4575V71.7476C61.2046 73.2482 60.4757 73.635 59.6136 73.635ZM71.3199 72.6372C70.5933 72.8078 69.8488 72.8934 69.1019 72.8925C67.1152 72.8925 65.9082 71.8753 65.9082 69.7017V66.0933H69.2195V69.1371C69.2195 70.2432 69.5643 70.425 70.5088 70.425C70.783 70.4275 71.0562 70.391 71.3199 70.3167V66.0933H74.6312V75.8473H71.3199V72.6372ZM79.9051 66.0933H76.5938L76.5977 75.8473H79.909V72.1847H82.5071V75.8473H85.8184V66.0933H82.5031V69.5393H79.9051V66.0933ZM87.8027 66.0933H91.1101V68.9398H92.2857C95.0641 68.9398 96.2397 69.9918 96.2397 72.3472C96.2397 74.9771 95.1973 75.8473 92.4856 75.8473H87.8027V66.0933ZM92.1878 73.3991C92.8657 73.3991 93.2968 73.1825 93.2968 72.3472C93.2968 71.6046 92.8657 71.388 92.2034 71.388H91.1101V73.3991H92.1878ZM97.3526 66.0933H100.66V75.8473H97.3526V66.0933ZM105.707 66.093H102.646V75.8471H105.707L108.771 70.533V75.8471H111.832V66.093H108.771L105.707 71.5077V66.093ZM105.997 62.7012H104.038C104.136 64.0432 105.198 64.9676 107.231 64.9676C109.265 64.9676 110.308 64.0432 110.441 62.7012H108.481C108.415 63.1343 107.984 63.3548 107.239 63.3548C106.495 63.3548 106.079 63.1343 105.997 62.7012Z" fill="#231F20"/>
</g>
<defs>
<clipPath id="clip0">
<rect width="134" height="93" fill="white"/>
</clipPath>
</defs>
</svg>

<svg width="134" height="93" viewBox="0 0 134 93" fill="none" xmlns="http://www.w3.org/2000/svg"><g clip-path="url(#clip0)"><path fill-rule="evenodd" clip-rule="evenodd" d="M110.966 36.25h.02a23.113 23.113 0 0114.515 5.02 22.578 22.578 0 018.033 12.944 22.351 22.351 0 01-2.066 15.041 22.798 22.798 0 01-11.234 10.367 19.938 19.938 0 01-6.399 1.245c-.937 0-1.611-.139-1.756-.456-.216-.46.529-.905 1.203-1.234 4.847-2.373 5.809-3.017 7.237-3.972.341-.228.708-.474 1.161-.766 4.98-3.117 8.421-9.421 8.421-15.551a18.718 18.718 0 00-5.629-13.294 19.22 19.22 0 00-13.502-5.48c-.999.001-1.996.078-2.982.229a1.985 1.985 0 01-1.585-.45 1.94 1.94 0 01-.504-.668 1.9 1.9 0 01-.172-.816v-.228a18.45 18.45 0 00-2.542-9.226 18.762 18.762 0 00-6.845-6.767 19.062 19.062 0 00-9.344-2.525 19.072 19.072 0 00-9.382 2.382 1.98 1.98 0 01-2.406-.377 1.929 1.929 0 01-.431-.744 24.243 24.243 0 00-8.856-12.31 24.77 24.77 0 00-14.52-4.746c-13.444 0-24.417 10.76-24.417 23.979.004.93.061 1.86.173 2.784a1.91 1.91 0 01-.442 1.464 1.954 1.954 0 01-1.38.69 22.964 22.964 0 00-15.2 7.04 22.383 22.383 0 00-6.216 15.393 21.839 21.839 0 002.476 10.21c1.329 2.386 3.966 5.972 8.966 9.452a53.716 53.716 0 007.839 4.31c1.05.476 1.45.85 1.29 1.21-.4.902-5.103.294-7.752-.773A26.44 26.44 0 014.554 69.97 25.915 25.915 0 010 55.218a26.229 26.229 0 016.62-17.294c4.244-4.79 10.096-7.908 16.482-8.782-.035-.437-.035-.87-.035-1.295C23.066 12.492 35.778 0 51.402 0a28.59 28.59 0 0115.94 4.823A28.026 28.026 0 0177.77 17.659a23.269 23.269 0 019.099-1.864c11.78 0 21.71 8.989 22.697 20.498.466-.042.937-.042 1.399-.042zM27.747 90.777v-2.982h.721l2.293 2.982h1.763l-2.81-3.516 2.614-3.31h-1.763l-1.96 2.653h-.858V83.95h-1.544v6.826h1.544zm8.336.166c-1.685 0-3.41-1.106-3.41-3.566s1.725-3.58 3.41-3.58 3.41 1.117 3.41 3.58c0 2.464-1.725 3.566-3.41 3.566zm1.826-3.566c0-1.574-.862-2.347-1.826-2.347-.964 0-1.826.773-1.826 2.347 0 1.575.862 2.321 1.826 2.321.964 0 1.826-.743 1.826-2.32zm4.46.495h3.087v2.905h1.528V83.95h-1.528v2.726h-3.088V83.95h-1.532v6.826h1.532v-2.905zm12.103 4.518v-1.613h-5.056v1.613H48.03v-2.792h.392c.784 0 1.176-.99 1.285-3.481l.102-2.17h5.044v5.647h1.03v2.792l-1.41.004zm-3.331-7.248l-.063 1.16c-.106 1.803-.36 2.777-.901 3.3h3.135v-4.46H51.14zm10.695.901v4.734h1.532V83.95h-1.532l-3.292 4.757V83.95h-1.532v6.826h1.532l3.292-4.734zm10.178 6.347h-1.391v-1.613h-5.53V83.95h1.525v5.635h2.83V83.95h1.532v5.635h1.03l.004 2.804zm5.968-6.347v4.734h1.532V83.95h-1.532l-3.292 4.757V83.95h-1.532v6.826h1.532l3.292-4.734zm6.148 4.9c-1.685 0-3.41-1.106-3.41-3.566s1.725-3.58 3.41-3.58 3.41 1.117 3.41 3.58c0 2.464-1.721 3.566-3.41 3.566zm1.826-3.566c0-1.574-.862-2.347-1.826-2.347-.964 0-1.826.773-1.826 2.347 0 1.575.862 2.321 1.826 2.321.964 0 1.826-.743 1.826-2.32zm4.441.495h3.084v2.905h1.533V83.95h-1.532v2.726h-3.085V83.95h-1.532v6.826h1.532v-2.905zm9.376 1.815c.783 0 1.426-.318 1.696-.952h1.505a3.094 3.094 0 01-1.183 1.636c-.568.4-1.255.601-1.952.572-2.226 0-3.5-1.674-3.5-3.631 0-2.054 1.431-3.516 3.398-3.516 2.12 0 3.445 1.702 3.319 4h-5.16c.102 1.268 1.003 1.89 1.877 1.89zm1.724-2.994a1.712 1.712 0 00-.519-1.221 1.754 1.754 0 00-1.245-.496 1.812 1.812 0 00-1.276.485 1.765 1.765 0 00-.561 1.232h3.601zm5.243-2.64a2.282 2.282 0 00-.884.81v-.912h-1.528V93h1.528v-3.125a2.312 2.312 0 002.062 1.067c1.685 0 2.97-1.4 2.97-3.58 0-2.182-1.285-3.567-2.97-3.567a2.316 2.316 0 00-1.178.257zm.841.989c1.069 0 1.712.89 1.712 2.32 0 1.45-.643 2.367-1.712 2.352-1.004 0-1.787-.805-1.787-2.352 0-1.547.783-2.32 1.787-2.32zM28.238 65.803c2.645 0 4.899 1.721 4.899 5.148 0 3.427-2.254 5.132-4.899 5.132s-4.902-1.705-4.902-5.132c0-3.427 2.253-5.148 4.902-5.148zm0 7.58c.843 0 1.49-.618 1.49-2.432s-.647-2.448-1.49-2.448c-.842 0-1.489.634-1.489 2.448s.643 2.433 1.49 2.433zm5.711-3.766v.301c0 4.34 2.105 6.165 4.609 6.15 2.331 0 4.78-1.594 4.78-4.788 0-2.967-1.951-4.514-4.118-4.514-1.11 0-2.351.36-2.916 1.47.118-1.833 1.16-2.325 2.47-2.487l3.557-.387v-2.978l-2.896.271c-4.31.418-5.388 3.392-5.486 6.962zm4.581-.406c.745 0 1.442.471 1.442 2.084 0 1.524-.709 2.089-1.407 2.089-.697 0-1.355-.654-1.355-2.089 0-1.593.576-2.084 1.32-2.084zm5.359 3.99h.297c.612 0 1.208-.618 1.356-3.843l.169-3.265h7.974v9.754h-3.307V68.74h-1.622l-.15 2.285c-.183 2.758-1.226 4.823-4.09 4.823h-.627v-2.645zm15.33-5.044c.176-.053.36-.071.544-.053.713 0 1.324.217 1.328 1.308v.27c-3.746.256-5.878 1.215-5.878 3.481 0 1.74 1.438 2.92 3.178 2.92 1.258 0 2.363-.433 3.025-1.504v1.268h3.08a33.59 33.59 0 01-.164-3.918v-1.868c.031-3.264-1.787-4.316-4.338-4.316-2.943 0-4.436 1.76-4.585 3.612h2.849a1.336 1.336 0 01.482-.942 1.37 1.37 0 01.48-.258zm.395 5.478c-.77 0-1.09-.465-1.094-.88.008-.844.936-1.17 2.685-1.297v.29c0 1.5-.73 1.887-1.591 1.887zm11.706-.998a9.654 9.654 0 01-2.218.255c-1.987 0-3.194-1.017-3.194-3.19v-3.609h3.311v3.044c0 1.106.345 1.288 1.29 1.288.274.002.547-.034.81-.108v-4.224h3.312v9.754H71.32v-3.21zm8.585-6.544h-3.311l.004 9.754h3.311v-3.662h2.598v3.662h3.311v-9.754h-3.315v3.446h-2.598v-3.446zm7.898 0h3.307v2.847h1.176c2.778 0 3.954 1.052 3.954 3.407 0 2.63-1.043 3.5-3.754 3.5h-4.683v-9.754zm4.385 7.306c.678 0 1.109-.216 1.109-1.052 0-.742-.431-.959-1.094-.959H91.11v2.011h1.078zm5.165-7.306h3.307v9.754h-3.307v-9.754zm8.354 0h-3.061v9.754h3.061l3.064-5.314v5.314h3.061v-9.754h-3.061l-3.064 5.415v-5.415zm.29-3.392h-1.959c.098 1.342 1.16 2.267 3.193 2.267 2.034 0 3.077-.925 3.21-2.267h-1.96c-.066.433-.497.654-1.242.654-.744 0-1.16-.22-1.242-.654z" fill="#231F20"/></g><defs><clipPath id="clip0"><path fill="#fff" d="M0 0h134v93H0z"/></clipPath></defs></svg>
